images/3233046.svg

<?xml version="1.0" encoding="UTF-8"?>
<svg xmlns="http://www.w3.org/2000/svg" xmlns:xlink="http://www.w3.org/1999/xlink" width="300pt" height="300pt" viewBox="0 0 300 300" version="1.1">
<defs>
<g>
<symbol overflow="visible" id="glyph0-0">
<path style="stroke:none;" d="M 0.546875 1.9375 L 0.546875 -7.75 L 6.046875 -7.75 L 6.046875 1.9375 Z M 1.171875 1.328125 L 5.4375 1.328125 L 5.4375 -7.140625 L 1.171875 -7.140625 Z M 1.171875 1.328125 "/>
</symbol>
<symbol overflow="visible" id="glyph0-1">
<path style="stroke:none;" d="M 1.078125 -8.015625 L 2.546875 -8.015625 L 6.09375 -1.3125 L 6.09375 -8.015625 L 7.15625 -8.015625 L 7.15625 0 L 5.6875 0 L 2.125 -6.703125 L 2.125 0 L 1.078125 0 Z M 1.078125 -8.015625 "/>
</symbol>
<symbol overflow="visible" id="glyph0-2">
<path style="stroke:none;" d="M 4.328125 -7.28125 C 3.546875 -7.28125 2.921875 -6.984375 2.453125 -6.390625 C 1.992188 -5.804688 1.765625 -5.007812 1.765625 -4 C 1.765625 -2.988281 1.992188 -2.1875 2.453125 -1.59375 C 2.921875 -1.007812 3.546875 -0.71875 4.328125 -0.71875 C 5.117188 -0.71875 5.742188 -1.007812 6.203125 -1.59375 C 6.660156 -2.1875 6.890625 -2.988281 6.890625 -4 C 6.890625 -5.007812 6.660156 -5.804688 6.203125 -6.390625 C 5.742188 -6.984375 5.117188 -7.28125 4.328125 -7.28125 Z M 4.328125 -8.171875 C 5.453125 -8.171875 6.351562 -7.789062 7.03125 -7.03125 C 7.707031 -6.28125 8.046875 -5.269531 8.046875 -4 C 8.046875 -2.738281 7.707031 -1.726562 7.03125 -0.96875 C 6.351562 -0.21875 5.453125 0.15625 4.328125 0.15625 C 3.203125 0.15625 2.300781 -0.21875 1.625 -0.96875 C 0.957031 -1.71875 0.625 -2.726562 0.625 -4 C 0.625 -5.269531 0.957031 -6.28125 1.625 -7.03125 C 2.300781 -7.789062 3.203125 -8.171875 4.328125 -8.171875 Z M 4.328125 -8.171875 "/>
</symbol>
</g>
</defs>
<g id="surface41249">
<rect x="0" y="0" width="300" height="300" style="fill:rgb(100%,100%,100%);fill-opacity:1;stroke:none;"/>
<path style="fill:none;stroke-width:1.2;stroke-linecap:butt;stroke-linejoin:miter;stroke:rgb(0%,0%,0%);stroke-opacity:1;stroke-miterlimit:10;" d="M 39.851562 218.699219 L 49.832031 209.703125 "/>
<path style="fill:none;stroke-width:1.2;stroke-linecap:butt;stroke-linejoin:miter;stroke:rgb(0%,0%,100%);stroke-opacity:1;stroke-miterlimit:10;" d="M 49.832031 209.703125 L 59.816406 200.710938 "/>
<path style="fill:none;stroke-width:1.2;stroke-linecap:butt;stroke-linejoin:miter;stroke:rgb(0%,0%,100%);stroke-opacity:1;stroke-miterlimit:10;" d="M 59.816406 200.710938 L 72.957031 203.496094 "/>
<path style="fill:none;stroke-width:1.2;stroke-linecap:butt;stroke-linejoin:miter;stroke:rgb(0%,0%,0%);stroke-opacity:1;stroke-miterlimit:10;" d="M 72.957031 203.496094 L 86.101562 206.285156 "/>
<path style="fill:none;stroke-width:1.2;stroke-linecap:butt;stroke-linejoin:miter;stroke:rgb(0%,0%,0%);stroke-opacity:1;stroke-miterlimit:10;" d="M 56.996094 173.984375 L 58.40625 187.347656 "/>
<path style="fill:none;stroke-width:1.2;stroke-linecap:butt;stroke-linejoin:miter;stroke:rgb(0%,0%,100%);stroke-opacity:1;stroke-miterlimit:10;" d="M 58.40625 187.347656 L 59.816406 200.710938 "/>
<path style=" stroke:none;fill-rule:nonzero;fill:rgb(100%,100%,100%);fill-opacity:1;" d="M 55.816406 194.210938 L 63.816406 194.210938 L 63.816406 207.210938 L 55.816406 207.210938 Z M 55.816406 194.210938 "/>
<g style="fill:rgb(0%,0%,100%);fill-opacity:1;">
  <use xlink:href="#glyph0-1" x="55.816406" y="204.112305"/>
</g>
<path style="fill:none;stroke-width:1.2;stroke-linecap:butt;stroke-linejoin:miter;stroke:rgb(0%,0%,0%);stroke-opacity:1;stroke-miterlimit:10;" d="M 86.101562 206.285156 L 99.527344 183.007812 "/>
<path style="fill:none;stroke-width:1.2;stroke-linecap:butt;stroke-linejoin:miter;stroke:rgb(0%,0%,0%);stroke-opacity:1;stroke-miterlimit:10;" d="M 81.96875 200.800781 L 92.707031 182.179688 "/>
<path style="fill:none;stroke-width:1.2;stroke-linecap:butt;stroke-linejoin:miter;stroke:rgb(0%,0%,0%);stroke-opacity:1;stroke-miterlimit:10;" d="M 99.527344 183.007812 L 81.539062 163.046875 "/>
<path style="fill:none;stroke-width:1.2;stroke-linecap:butt;stroke-linejoin:miter;stroke:rgb(0%,0%,0%);stroke-opacity:1;stroke-miterlimit:10;" d="M 99.527344 183.007812 L 126.25 180.191406 "/>
<path style="fill:none;stroke-width:1.2;stroke-linecap:butt;stroke-linejoin:miter;stroke:rgb(0%,0%,0%);stroke-opacity:1;stroke-miterlimit:10;" d="M 81.539062 163.046875 L 84.339844 136.320312 "/>
<path style="fill:none;stroke-width:1.2;stroke-linecap:butt;stroke-linejoin:miter;stroke:rgb(0%,0%,0%);stroke-opacity:1;stroke-miterlimit:10;" d="M 75.53125 159.714844 L 77.769531 138.335938 "/>
<path style="fill:none;stroke-width:1.2;stroke-linecap:butt;stroke-linejoin:miter;stroke:rgb(0%,0%,0%);stroke-opacity:1;stroke-miterlimit:10;" d="M 56.996094 173.984375 L 81.539062 163.046875 "/>
<path style="fill:none;stroke-width:1.2;stroke-linecap:butt;stroke-linejoin:miter;stroke:rgb(0%,0%,0%);stroke-opacity:1;stroke-miterlimit:10;" d="M 84.339844 136.320312 L 62.59375 120.535156 "/>
<path style="fill:none;stroke-width:1.2;stroke-linecap:butt;stroke-linejoin:miter;stroke:rgb(0%,0%,0%);stroke-opacity:1;stroke-miterlimit:10;" d="M 62.59375 120.535156 L 38.046875 131.472656 "/>
<path style="fill:none;stroke-width:1.2;stroke-linecap:butt;stroke-linejoin:miter;stroke:rgb(0%,0%,0%);stroke-opacity:1;stroke-miterlimit:10;" d="M 62.710938 127.402344 L 43.078125 136.15625 "/>
<path style="fill:none;stroke-width:1.2;stroke-linecap:butt;stroke-linejoin:miter;stroke:rgb(0%,0%,0%);stroke-opacity:1;stroke-miterlimit:10;" d="M 38.046875 131.472656 L 35.25 158.199219 "/>
<path style="fill:none;stroke-width:1.2;stroke-linecap:butt;stroke-linejoin:miter;stroke:rgb(0%,0%,0%);stroke-opacity:1;stroke-miterlimit:10;" d="M 35.25 158.199219 L 56.996094 173.984375 "/>
<path style="fill:none;stroke-width:1.2;stroke-linecap:butt;stroke-linejoin:miter;stroke:rgb(0%,0%,0%);stroke-opacity:1;stroke-miterlimit:10;" d="M 41.140625 154.660156 L 58.535156 167.289062 "/>
<path style="fill:none;stroke-width:1.2;stroke-linecap:butt;stroke-linejoin:miter;stroke:rgb(0%,0%,0%);stroke-opacity:1;stroke-miterlimit:10;" d="M 126.25 180.191406 L 134.152344 191.058594 "/>
<path style="fill:none;stroke-width:1.2;stroke-linecap:butt;stroke-linejoin:miter;stroke:rgb(0%,0%,100%);stroke-opacity:1;stroke-miterlimit:10;" d="M 134.152344 191.058594 L 142.054688 201.925781 "/>
<path style="fill:none;stroke-width:1.2;stroke-linecap:butt;stroke-linejoin:miter;stroke:rgb(0%,0%,0%);stroke-opacity:1;stroke-miterlimit:10;" d="M 132.945312 178.644531 L 139.265625 187.339844 "/>
<path style="fill:none;stroke-width:1.2;stroke-linecap:butt;stroke-linejoin:miter;stroke:rgb(0%,0%,100%);stroke-opacity:1;stroke-miterlimit:10;" d="M 139.265625 187.339844 L 145.585938 196.03125 "/>
<path style="fill:none;stroke-width:1.2;stroke-linecap:butt;stroke-linejoin:miter;stroke:rgb(0%,0%,0%);stroke-opacity:1;stroke-miterlimit:10;" d="M 137.171875 155.636719 L 126.25 180.191406 "/>
<path style="fill:none;stroke-width:1.2;stroke-linecap:butt;stroke-linejoin:miter;stroke:rgb(0%,0%,100%);stroke-opacity:1;stroke-miterlimit:10;" d="M 142.054688 201.925781 L 155.414062 200.515625 "/>
<path style="fill:none;stroke-width:1.2;stroke-linecap:butt;stroke-linejoin:miter;stroke:rgb(0%,0%,0%);stroke-opacity:1;stroke-miterlimit:10;" d="M 155.414062 200.515625 L 168.777344 199.105469 "/>
<path style=" stroke:none;fill-rule:nonzero;fill:rgb(100%,100%,100%);fill-opacity:1;" d="M 138.054688 195.425781 L 146.054688 195.425781 L 146.054688 208.425781 L 138.054688 208.425781 Z M 138.054688 195.425781 "/>
<g style="fill:rgb(0%,0%,100%);fill-opacity:1;">
  <use xlink:href="#glyph0-1" x="138.054688" y="205.327148"/>
</g>
<path style="fill:none;stroke-width:1.2;stroke-linecap:butt;stroke-linejoin:miter;stroke:rgb(0%,0%,0%);stroke-opacity:1;stroke-miterlimit:10;" d="M 168.777344 199.105469 L 184.582031 220.839844 "/>
<path style="fill:none;stroke-width:1.2;stroke-linecap:butt;stroke-linejoin:miter;stroke:rgb(0%,0%,0%);stroke-opacity:1;stroke-miterlimit:10;" d="M 175.472656 197.558594 L 188.113281 214.945312 "/>
<path style="fill:none;stroke-width:1.2;stroke-linecap:butt;stroke-linejoin:miter;stroke:rgb(0%,0%,0%);stroke-opacity:1;stroke-miterlimit:10;" d="M 179.699219 174.550781 L 168.777344 199.105469 "/>
<path style="fill:none;stroke-width:1.2;stroke-linecap:butt;stroke-linejoin:miter;stroke:rgb(0%,0%,0%);stroke-opacity:1;stroke-miterlimit:10;" d="M 184.582031 220.839844 L 197.941406 219.429688 "/>
<path style="fill:none;stroke-width:1.2;stroke-linecap:butt;stroke-linejoin:miter;stroke:rgb(0%,0%,100%);stroke-opacity:1;stroke-miterlimit:10;" d="M 197.941406 219.429688 L 211.304688 218.019531 "/>
<path style="fill:none;stroke-width:1.2;stroke-linecap:butt;stroke-linejoin:miter;stroke:rgb(0%,0%,100%);stroke-opacity:1;stroke-miterlimit:10;" d="M 211.304688 218.019531 L 216.761719 205.742188 "/>
<path style="fill:none;stroke-width:1.2;stroke-linecap:butt;stroke-linejoin:miter;stroke:rgb(0%,0%,0%);stroke-opacity:1;stroke-miterlimit:10;" d="M 216.761719 205.742188 L 222.222656 193.46875 "/>
<path style="fill:none;stroke-width:1.2;stroke-linecap:butt;stroke-linejoin:miter;stroke:rgb(0%,0%,100%);stroke-opacity:1;stroke-miterlimit:10;" d="M 206.617188 212.996094 L 210.988281 203.171875 "/>
<path style="fill:none;stroke-width:1.2;stroke-linecap:butt;stroke-linejoin:miter;stroke:rgb(0%,0%,0%);stroke-opacity:1;stroke-miterlimit:10;" d="M 210.988281 203.171875 L 215.355469 193.351562 "/>
<path style=" stroke:none;fill-rule:nonzero;fill:rgb(100%,100%,100%);fill-opacity:1;" d="M 207.304688 211.519531 L 215.304688 211.519531 L 215.304688 224.519531 L 207.304688 224.519531 Z M 207.304688 211.519531 "/>
<g style="fill:rgb(0%,0%,100%);fill-opacity:1;">
  <use xlink:href="#glyph0-1" x="207.304688" y="221.420898"/>
</g>
<path style="fill:none;stroke-width:1.2;stroke-linecap:butt;stroke-linejoin:miter;stroke:rgb(0%,0%,0%);stroke-opacity:1;stroke-miterlimit:10;" d="M 222.222656 193.46875 L 214.324219 182.601562 "/>
<path style="fill:none;stroke-width:1.2;stroke-linecap:butt;stroke-linejoin:miter;stroke:rgb(0%,0%,100%);stroke-opacity:1;stroke-miterlimit:10;" d="M 214.324219 182.601562 L 206.421875 171.734375 "/>
<path style="fill:none;stroke-width:1.2;stroke-linecap:butt;stroke-linejoin:miter;stroke:rgb(0%,0%,0%);stroke-opacity:1;stroke-miterlimit:10;" d="M 222.222656 193.46875 L 235.585938 192.058594 "/>
<path style="fill:none;stroke-width:1.2;stroke-linecap:butt;stroke-linejoin:miter;stroke:rgb(100%,0%,0%);stroke-opacity:1;stroke-miterlimit:10;" d="M 235.585938 192.058594 L 248.945312 190.648438 "/>
<path style="fill:none;stroke-width:1.2;stroke-linecap:butt;stroke-linejoin:miter;stroke:rgb(0%,0%,100%);stroke-opacity:1;stroke-miterlimit:10;" d="M 206.421875 171.734375 L 193.058594 173.144531 "/>
<path style="fill:none;stroke-width:1.2;stroke-linecap:butt;stroke-linejoin:miter;stroke:rgb(0%,0%,0%);stroke-opacity:1;stroke-miterlimit:10;" d="M 193.058594 173.144531 L 179.699219 174.550781 "/>
<path style="fill:none;stroke-width:1.2;stroke-linecap:butt;stroke-linejoin:miter;stroke:rgb(0%,0%,100%);stroke-opacity:1;stroke-miterlimit:10;" d="M 204.410156 178.304688 L 193.722656 179.429688 "/>
<path style="fill:none;stroke-width:1.2;stroke-linecap:butt;stroke-linejoin:miter;stroke:rgb(0%,0%,0%);stroke-opacity:1;stroke-miterlimit:10;" d="M 193.722656 179.429688 L 183.035156 180.558594 "/>
<path style=" stroke:none;fill-rule:nonzero;fill:rgb(100%,100%,100%);fill-opacity:1;" d="M 202.421875 165.234375 L 210.421875 165.234375 L 210.421875 178.234375 L 202.421875 178.234375 Z M 202.421875 165.234375 "/>
<g style="fill:rgb(0%,0%,100%);fill-opacity:1;">
  <use xlink:href="#glyph0-1" x="202.421875" y="175.135742"/>
</g>
<path style="fill:none;stroke-width:1.2;stroke-linecap:butt;stroke-linejoin:miter;stroke:rgb(0%,0%,0%);stroke-opacity:1;stroke-miterlimit:10;" d="M 179.699219 174.550781 L 171.796875 163.6875 "/>
<path style="fill:none;stroke-width:1.2;stroke-linecap:butt;stroke-linejoin:miter;stroke:rgb(0%,0%,100%);stroke-opacity:1;stroke-miterlimit:10;" d="M 171.796875 163.6875 L 163.894531 152.820312 "/>
<path style="fill:none;stroke-width:1.2;stroke-linecap:butt;stroke-linejoin:miter;stroke:rgb(0%,0%,100%);stroke-opacity:1;stroke-miterlimit:10;" d="M 163.894531 152.820312 L 150.53125 154.230469 "/>
<path style="fill:none;stroke-width:1.2;stroke-linecap:butt;stroke-linejoin:miter;stroke:rgb(0%,0%,0%);stroke-opacity:1;stroke-miterlimit:10;" d="M 150.53125 154.230469 L 137.171875 155.636719 "/>
<path style="fill:none;stroke-width:1.2;stroke-linecap:butt;stroke-linejoin:miter;stroke:rgb(0%,0%,100%);stroke-opacity:1;stroke-miterlimit:10;" d="M 163.894531 152.820312 L 169.355469 140.542969 "/>
<path style="fill:none;stroke-width:1.2;stroke-linecap:butt;stroke-linejoin:miter;stroke:rgb(0%,0%,0%);stroke-opacity:1;stroke-miterlimit:10;" d="M 169.355469 140.542969 L 174.816406 128.265625 "/>
<path style=" stroke:none;fill-rule:nonzero;fill:rgb(100%,100%,100%);fill-opacity:1;" d="M 159.894531 146.320312 L 167.894531 146.320312 L 167.894531 159.320312 L 159.894531 159.320312 Z M 159.894531 146.320312 "/>
<g style="fill:rgb(0%,0%,100%);fill-opacity:1;">
  <use xlink:href="#glyph0-1" x="159.894531" y="156.22168"/>
</g>
<path style="fill:none;stroke-width:1.2;stroke-linecap:butt;stroke-linejoin:miter;stroke:rgb(0%,0%,0%);stroke-opacity:1;stroke-miterlimit:10;" d="M 139.726562 153.777344 L 131.828125 142.914062 "/>
<path style="fill:none;stroke-width:1.2;stroke-linecap:butt;stroke-linejoin:miter;stroke:rgb(100%,0%,0%);stroke-opacity:1;stroke-miterlimit:10;" d="M 131.828125 142.914062 L 123.925781 132.046875 "/>
<path style="fill:none;stroke-width:1.2;stroke-linecap:butt;stroke-linejoin:miter;stroke:rgb(0%,0%,0%);stroke-opacity:1;stroke-miterlimit:10;" d="M 134.613281 157.496094 L 126.714844 146.628906 "/>
<path style="fill:none;stroke-width:1.2;stroke-linecap:butt;stroke-linejoin:miter;stroke:rgb(100%,0%,0%);stroke-opacity:1;stroke-miterlimit:10;" d="M 126.714844 146.628906 L 118.8125 135.765625 "/>
<path style=" stroke:none;fill-rule:nonzero;fill:rgb(100%,100%,100%);fill-opacity:1;" d="M 112.367188 127.40625 L 121.367188 127.40625 L 121.367188 140.40625 L 112.367188 140.40625 Z M 112.367188 127.40625 "/>
<g style="fill:rgb(100%,0%,0%);fill-opacity:1;">
  <use xlink:href="#glyph0-2" x="112.367188" y="137.307617"/>
</g>
<path style="fill:none;stroke-width:1.2;stroke-linecap:butt;stroke-linejoin:miter;stroke:rgb(0%,0%,0%);stroke-opacity:1;stroke-miterlimit:10;" d="M 174.816406 128.265625 L 201.539062 125.449219 "/>
<path style="fill:none;stroke-width:1.2;stroke-linecap:butt;stroke-linejoin:miter;stroke:rgb(0%,0%,0%);stroke-opacity:1;stroke-miterlimit:10;" d="M 176.824219 121.695312 L 198.203125 119.441406 "/>
<path style="fill:none;stroke-width:1.2;stroke-linecap:butt;stroke-linejoin:miter;stroke:rgb(0%,0%,0%);stroke-opacity:1;stroke-miterlimit:10;" d="M 159.011719 106.53125 L 174.816406 128.265625 "/>
<path style="fill:none;stroke-width:1.2;stroke-linecap:butt;stroke-linejoin:miter;stroke:rgb(0%,0%,0%);stroke-opacity:1;stroke-miterlimit:10;" d="M 201.539062 125.449219 L 212.457031 100.894531 "/>
<path style="fill:none;stroke-width:1.2;stroke-linecap:butt;stroke-linejoin:miter;stroke:rgb(0%,0%,0%);stroke-opacity:1;stroke-miterlimit:10;" d="M 212.457031 100.894531 L 196.65625 79.160156 "/>
<path style="fill:none;stroke-width:1.2;stroke-linecap:butt;stroke-linejoin:miter;stroke:rgb(0%,0%,0%);stroke-opacity:1;stroke-miterlimit:10;" d="M 205.765625 102.441406 L 193.121094 85.054688 "/>
<path style="fill:none;stroke-width:1.2;stroke-linecap:butt;stroke-linejoin:miter;stroke:rgb(0%,0%,0%);stroke-opacity:1;stroke-miterlimit:10;" d="M 196.65625 79.160156 L 169.933594 81.980469 "/>
<path style="fill:none;stroke-width:1.2;stroke-linecap:butt;stroke-linejoin:miter;stroke:rgb(0%,0%,0%);stroke-opacity:1;stroke-miterlimit:10;" d="M 169.933594 81.980469 L 159.011719 106.53125 "/>
<path style="fill:none;stroke-width:1.2;stroke-linecap:butt;stroke-linejoin:miter;stroke:rgb(0%,0%,0%);stroke-opacity:1;stroke-miterlimit:10;" d="M 174.617188 87.003906 L 165.882812 106.648438 "/>
<path style="fill:none;stroke-width:1.2;stroke-linecap:butt;stroke-linejoin:miter;stroke:rgb(100%,0%,0%);stroke-opacity:1;stroke-miterlimit:10;" d="M 248.945312 190.648438 L 256.847656 201.515625 "/>
<path style="fill:none;stroke-width:1.2;stroke-linecap:butt;stroke-linejoin:miter;stroke:rgb(0%,0%,0%);stroke-opacity:1;stroke-miterlimit:10;" d="M 256.847656 201.515625 L 264.75 212.382812 "/>
<path style=" stroke:none;fill-rule:nonzero;fill:rgb(100%,100%,100%);fill-opacity:1;" d="M 244.945312 184.148438 L 253.945312 184.148438 L 253.945312 197.148438 L 244.945312 197.148438 Z M 244.945312 184.148438 "/>
<g style="fill:rgb(100%,0%,0%);fill-opacity:1;">
  <use xlink:href="#glyph0-2" x="244.945312" y="194.049805"/>
</g>
</g>
</svg>

<svg xmlns="http://www.w3.org/2000/svg" xmlns:xlink="http://www.w3.org/1999/xlink" width="300pt" height="300pt" viewBox="0 0 300 300"><defs><symbol overflow="visible"><path d="M.547 1.938V-7.75h5.5v9.688zm.625-.61h4.266v-8.47H1.171zm0 0"/></symbol><symbol overflow="visible" id="a"><path d="M1.078-8.016h1.47l3.546 6.704v-6.704h1.062V0H5.688L2.124-6.703V0H1.078zm0 0"/></symbol><symbol overflow="visible" id="b"><path d="M4.328-7.28c-.78 0-1.406.296-1.875.89-.46.585-.687 1.382-.687 2.39 0 1.012.226 1.813.687 2.406.47.586 1.094.875 1.875.875.79 0 1.414-.288 1.875-.874.457-.593.688-1.394.688-2.406 0-1.008-.23-1.805-.687-2.39-.46-.594-1.086-.89-1.875-.89zm0-.892c1.125 0 2.024.383 2.703 1.14C7.708-6.28 8.048-5.27 8.048-4c0 1.262-.34 2.273-1.016 3.03C6.353-.22 5.454.157 4.33.157S2.3-.22 1.625-.97c-.668-.75-1-1.757-1-3.03 0-1.27.332-2.28 1-3.03.676-.76 1.578-1.142 2.703-1.142zm0 0"/></symbol></defs><g><path fill="#fff" d="M0 0h300v300H0z"/><path d="M39.852 218.7l9.98-8.997" stroke-width="1.2" stroke="#000" stroke-miterlimit="10" fill="none"/><path d="M49.832 209.703l9.984-8.992M59.816 200.71l13.14 2.786" stroke-width="1.2" stroke="#00f" stroke-miterlimit="10" fill="none"/><path d="M72.957 203.496l13.145 2.79M56.996 173.984l1.41 13.364" stroke-width="1.2" stroke="#000" stroke-miterlimit="10" fill="none"/><path d="M58.406 187.348l1.41 13.363" stroke-width="1.2" stroke="#00f" stroke-miterlimit="10" fill="none"/><path d="M55.816 194.21h8v13h-8zm0 0" fill="#fff"/><use xlink:href="#a" x="55.816" y="204.112" fill="#00f"/><path d="M86.102 206.285l13.425-23.277M81.97 200.8l10.737-18.62M99.527 183.008l-17.988-19.96M99.527 183.008l26.723-2.817M81.54 163.047l2.8-26.727M75.53 159.715l2.24-21.38M56.996 173.984l24.543-10.937M84.34 136.32l-21.746-15.785M62.594 120.535l-24.547 10.938M62.71 127.402l-19.632 8.754M38.047 131.473L35.25 158.2M35.25 158.2l21.746 15.784M41.14 154.66l17.395 12.63M126.25 180.19l7.902 10.87" stroke-width="1.2" stroke="#000" stroke-miterlimit="10" fill="none"/><path d="M134.152 191.06l7.903 10.866" stroke-width="1.2" stroke="#00f" stroke-miterlimit="10" fill="none"/><path d="M132.945 178.645l6.32 8.695" stroke-width="1.2" stroke="#000" stroke-miterlimit="10" fill="none"/><path d="M139.266 187.34l6.32 8.69" stroke-width="1.2" stroke="#00f" stroke-miterlimit="10" fill="none"/><path d="M137.172 155.637L126.25 180.19" stroke-width="1.2" stroke="#000" stroke-miterlimit="10" fill="none"/><path d="M142.055 201.926l13.36-1.41" stroke-width="1.2" stroke="#00f" stroke-miterlimit="10" fill="none"/><path d="M155.414 200.516l13.363-1.41" stroke-width="1.2" stroke="#000" stroke-miterlimit="10" fill="none"/><path d="M138.055 195.426h8v13h-8zm0 0" fill="#fff"/><use xlink:href="#a" x="138.055" y="205.327" fill="#00f"/><path d="M168.777 199.105l15.805 21.735M175.473 197.56l12.64 17.385M179.7 174.55l-10.923 24.555M184.582 220.84l13.36-1.41" stroke-width="1.2" stroke="#000" stroke-miterlimit="10" fill="none"/><path d="M197.94 219.43l13.365-1.41M211.305 218.02l5.457-12.278" stroke-width="1.2" stroke="#00f" stroke-miterlimit="10" fill="none"/><path d="M216.762 205.742l5.46-12.273" stroke-width="1.2" stroke="#000" stroke-miterlimit="10" fill="none"/><path d="M206.617 212.996l4.37-9.824" stroke-width="1.2" stroke="#00f" stroke-miterlimit="10" fill="none"/><path d="M210.988 203.172l4.367-9.82" stroke-width="1.2" stroke="#000" stroke-miterlimit="10" fill="none"/><path d="M207.305 211.52h8v13h-8zm0 0" fill="#fff"/><use xlink:href="#a" x="207.305" y="221.421" fill="#00f"/><path d="M222.223 193.47l-7.9-10.868" stroke-width="1.2" stroke="#000" stroke-miterlimit="10" fill="none"/><path d="M214.324 182.602l-7.902-10.868" stroke-width="1.2" stroke="#00f" stroke-miterlimit="10" fill="none"/><path d="M222.223 193.47l13.363-1.41" stroke-width="1.2" stroke="#000" stroke-miterlimit="10" fill="none"/><path d="M235.586 192.06l13.36-1.412" stroke-width="1.2" stroke="#f00" stroke-miterlimit="10" fill="none"/><path d="M206.422 171.734l-13.363 1.41" stroke-width="1.2" stroke="#00f" stroke-miterlimit="10" fill="none"/><path d="M193.06 173.145l-13.36 1.406" stroke-width="1.2" stroke="#000" stroke-miterlimit="10" fill="none"/><path d="M204.41 178.305l-10.687 1.125" stroke-width="1.2" stroke="#00f" stroke-miterlimit="10" fill="none"/><path d="M193.723 179.43l-10.688 1.13" stroke-width="1.2" stroke="#000" stroke-miterlimit="10" fill="none"/><path d="M202.422 165.234h8v13h-8zm0 0" fill="#fff"/><use xlink:href="#a" x="202.422" y="175.136" fill="#00f"/><path d="M179.7 174.55l-7.903-10.863" stroke-width="1.2" stroke="#000" stroke-miterlimit="10" fill="none"/><path d="M171.797 163.688l-7.902-10.868M163.895 152.82l-13.364 1.41" stroke-width="1.2" stroke="#00f" stroke-miterlimit="10" fill="none"/><path d="M150.53 154.23l-13.358 1.407" stroke-width="1.2" stroke="#000" stroke-miterlimit="10" fill="none"/><path d="M163.895 152.82l5.46-12.277" stroke-width="1.2" stroke="#00f" stroke-miterlimit="10" fill="none"/><path d="M169.355 140.543l5.46-12.277" stroke-width="1.2" stroke="#000" stroke-miterlimit="10" fill="none"/><path d="M159.895 146.32h8v13h-8zm0 0" fill="#fff"/><use xlink:href="#a" x="159.895" y="156.222" fill="#00f"/><path d="M139.727 153.777l-7.9-10.863" stroke-width="1.2" stroke="#000" stroke-miterlimit="10" fill="none"/><path d="M131.828 142.914l-7.902-10.867" stroke-width="1.2" stroke="#f00" stroke-miterlimit="10" fill="none"/><path d="M134.613 157.496l-7.898-10.867" stroke-width="1.2" stroke="#000" stroke-miterlimit="10" fill="none"/><path d="M126.715 146.63l-7.903-10.864" stroke-width="1.2" stroke="#f00" stroke-miterlimit="10" fill="none"/><path d="M112.367 127.406h9v13h-9zm0 0" fill="#fff"/><use xlink:href="#b" x="112.367" y="137.308" fill="#f00"/><path d="M174.816 128.266l26.723-2.817M176.824 121.695l21.38-2.254M159.012 106.53l15.804 21.736M201.54 125.45l10.917-24.555M212.457 100.895l-15.8-21.735M205.766 102.44L193.12 85.056M196.656 79.16l-26.722 2.82M169.934 81.98l-10.922 24.55M174.617 87.004l-8.734 19.644" stroke-width="1.2" stroke="#000" stroke-miterlimit="10" fill="none"/><path d="M248.945 190.648l7.903 10.868" stroke-width="1.2" stroke="#f00" stroke-miterlimit="10" fill="none"/><path d="M256.848 201.516l7.902 10.867" stroke-width="1.2" stroke="#000" stroke-miterlimit="10" fill="none"/><path d="M244.945 184.148h9v13h-9zm0 0" fill="#fff"/><use xlink:href="#b" x="244.945" y="194.05" fill="#f00"/></g></svg>
